X: 27
T: Wind That Shakes The Barley, The
Z: Ioannis
S: https://thesession.org/tunes/116#setting50374
R: reel
M: 4/4
L: 1/8
K: Dmaj
"D"A2AB AFEF|"B"DBBA "G"BcdB|"F"PAGAB "D"ADFA|"A"gfed BcdB|
"D"PA2FA DAFA|"B"GB BA "D"BcdB|"F"PA2FA ADFA|"A"gfed Bcde||
"D"fAdf "G"Pgfge|"F"fd Md2"E"Bcde|"D"fAdf "G"gefg|"A"afed "D"Bcde|
"D"fd Md2P"G"gfge|"F"fd Md2"E"Bcde|"D"fd Md2"G"efge|"A"afed "D"BcdB||

